X:18563
T:Wedding Day
R:Reel
O:England
M:2/4
L:1/8
A:Lancashire
B:Winder
K:Bb
F | DF Bd | fg fd | eg Gc | Ac cd |\
DF Bd | fd bd | ec Af | dB B2 :|*
|:f|bf gf | bB cB | Gc cB | Ac ce | \
df Bd | GB Eg | fb ce | dB B2 :|**
